X: 75
T: Preludium F-dur
C: Maria Szymanowska
%%abc-version 2.0
%%abcx-abcm2ps-target-version 5.9.1 (29 Sep 2008)
%%abc-creator hum2abc beta
%%abcx-conversion-date 2021/10/04 07:38:39
%%abc-edited-by Leszek Kubiak
%%abc-edited-by Marcin Jachim
%%abcx-initial-encoding-date 2020-06-15
%%humdrum-veritas 3039650813
%%humdrum-veritas-data 772626596
%%linebreak <none>
%%barnumbers 0
L: 1/16
M: 6/8
N: Derived from pl-kozmzk--mzk-m-31--001_szymanowska-maria--preludium-f-dur.krn
%%staves {1 2}
V: 1 clef=treble
V: 2 clef=bass
K: F
[V:1] c'2 [I:setbarnb 1]| 
[V:2] z2 | 
[V:1] !accent!c''a'f'c'b'g' !accent!a'f'c'ad'b | 
[V:2] !arpeggio![F,,12C,12A,12]- | 
[V:1] c'afcbg afcAdB | 
[V:2] [F,,12C,12A,12] | 
[V:1] !accent!cAFCdc !accent!cBGCdc | 
[V:2] !arpeggio![F,,4C,4A,4]z2!arpeggio![E,,4C,4G,4]z2 | 
[V:1] !accent!cAFCdc cBGE{/D}!accent!CB, | 
[V:2] !arpeggio![F,,4C,4A,4]z2!arpeggio![C,,4G,,4C,4]z2 | 
[V:1] c''a'f'c'b'g' a'f'c'ad'b | 
[V:2] !arpeggio![F,,12C,12A,12]- | 
[V:1] c'afcbg afcAdB | 
[V:2] [F,,12C,12A,12] | 
[V:1] cAFCdc cBGCdc | 
[V:2] !arpeggio![F,,4C,4A,4]z2!arpeggio![E,,4C,4G,4]z2 | 
[V:1] {/F} !accent!fcAFCA,F,4 :|]|:  
[V:2] !arpeggio![F,,4C,4A,4]z2[F,,,4F,,4] :|]|:  
[V:1] a'2 [I:setbarnb 9]| 
[V:2] z2 | 
[V:1] b'g'e'^c'a'f' !accent!g'e'^c'af'd' | 
[V:2] {/A,,}A,12 | 
[V:1] !accent!e'^c'bgd'a bge^caf | 
[V:2] {/A,,}A,12 | 
[V:1] ge^cAfd e^cBGdA | 
[V:2] {/A,,}A,12 | 
[V:1] BGE^C^GD [^CA] A^cea^c' | 
[V:2] {/A,,}A,12 | 
[V:1] b'g'e'^c'a'f' g'e'^c'af'd' | 
[V:2] {/A,,}A,6{/A,,}A,6 | 
[V:1] e'^c'bgd'a bge^caf | 
[V:2] {/A,,}A,6{/A,,}A,6 | 
[V:1] ge^cAfd e^cBGdA | 
[V:2] {/A,,}A,6{/A,,}A,6 | 
[V:1] BGE^C^GD[^C4A4]z2 | 
[V:2] {/A,,}A,4>!wedge!A,4!wedge!E,2!wedge!^C,2 | 
[V:1] A,^CEA^ce a2{/^g}a2[A2a2] | 
[V:2] A,,4>A,4^C2A,2 | 
[V:1] A,DFAdf a2{/^g}a2[A2a2] | 
[V:2] A,,4>A,4D2A,2 | 
[V:1] A^cea^c'e' ^g'a'aa'g'a' | 
[V:2] A,,4>!wedge!A,4!wedge!^C2!wedge!A,2 | 
[V:1] Adfad'f' ^g'a'aa'^g'a' | 
[V:2] A,,4>!wedge!A,4!wedge!D2!wedge!A,2 | 
[V:1] [a2^c'2e'2a'2]z4z2 A,^CEA | 
[V:2] [A,,2A,2] A,,^C,E,A, A,2z4[K:clef=treble] | 
[V:1] A2z4z2 Acea | 
[V:2] z2 A,=CEA A2z4 | 
[V:1] a2z4[c'2c''2][d'2c''2][e'2c''2] | 
[V:2] z2 Acea !wedge!c'2!wedge!=b2!wedge!_b2 | 
[V:1] [f'c'']a'f'c'b'g' a'f'c'ad'b | 
[V:2] a4z2z4z2 | 
[V:1] c'afcbg afcAdB | 
[V:2] z12[K:clef=bass] | 
[V:1] cAF!accent!Cdc cBG!accent!Cdc | 
[V:2] !arpeggio![F,,4C,4A,4]z2!arpeggio![E,,4C,4G,4]z2 | 
[V:1] cAFC_ed dcADac | 
[V:2] !arpeggio![F,,4C,4A,4]z2!arpeggio![^F,,4D,4A,4]z2 | 
[V:1] cBGD_ed dcAD_ed | 
[V:2] !arpeggio![G,,4D,4B,4]z2!arpeggio![^F,,4C,4A,4]z2 | 
[V:1] dBGD_ed d=BF=E=bd | 
[V:2] !arpeggio![G,,4D,4B,4]z2!arpeggio![^G,,4E,4=B,4]z2 | 
[V:1] dcAEc'e ed=BFd'f | 
[V:2] !arpeggio![A,,4E,4C4]z2!arpeggio![=B,,4G,4D4]z2 | 
[V:1] fecGa'f' g'e'c'gf'd' | 
[V:2] [C,12G,12E12]- | 
[V:1] e'c'geaf gecGfd | 
[V:2] [C,12G,12E12] | 
[V:1] ecGEec ecGEec | 
[V:2] [C,6C6][B,,6B,6] | 
[V:1] fcAFfc fd_AFfd | 
[V:2] [A,,6A,6][=B,,6=B,6] | 
[V:1] fc=AFfc f'c'aff'c' | 
[V:2] [C,6C6]z4z2 | 
[V:1] ecBGec e'c'bge'c' | 
[V:2] [C,6C6]z4z2 | 
[V:1] c''a'f'c'b'g' a'f'c'ad'b | 
[V:2] [F,,12C,12A,12]- | 
[V:1] c'afcbg afcAdB | 
[V:2] [F,,12C,12A,12] | 
[V:1] cAFCdc cBGCdc | 
[V:2] !arpeggio![F,,4C,4A,4]z2[E,,4C,4G,4]z2 | 
[V:1] cAFCdc cBGE{/D}!accent!CB, | 
[V:2] !arpeggio![F,,4C,4A,4]z2!arpeggio![C,,4G,,4C,4]z2 | 
[V:1] c''a'f'c'b'g' a'f'c'ad'b | 
[V:2] [F,,12C,12A,12]- | 
[V:1] c'afcbg afcAdB | 
[V:2] [F,,12C,12A,12] | 
[V:1] cAFCdc cBGCdc | 
[V:2] !arpeggio![F,,4C,4A,4]z2!arpeggio![E,,4C,4G,4]z2 | 
[V:1] cAFC!accent!_dc BGE_DCB, | 
[V:2] !arpeggio![F,,4C,4A,4]z2!arpeggio![C,,4G,,4C,4]z2 | 
[V:1] A,CFA!accent!EF CFAc!accent!^GA | 
[V:2] [F,,12C,12F,12] | 
[V:1] FAcf!accent!=Bc Acfa!accent!ef | 
[V:2] [F,,12C,12A,12]- | 
[V:1] cfac'!accent!^ga fac'f'!accent!=bc' | 
[V:2] [F,,12C,12A,12]- | 
[V:1] ac'f'a'!accent!e'f' c'f'a'c''^g'a' | 
[V:2] [F,,12C,12A,12] | 
[V:1] c''a'f'c'b'g' a'f'c'ad'b | 
[V:2] !arpeggio![F,,12C,12A,12]- | 
[V:1] c'afcbg afcAdB | 
[V:2] [F,,12C,12A,12]- | 
[V:1] cAFCBG AFCA,DB, | 
[V:2] [F,,8C,8A,8]z4 | 
[V:1] FCA,F,C,A,, !wedge!F,,2!fermata!F,,,2 :|]  
[V:2] x8x2 :|]  


